X: 11116
T: Duke Of Gordon's Favourite, The
R: jig
M: 6/8
K: Amajor
|:(3E/F/G/)|A3/2G/F EDC|CB,B, B,2B/c/|d3/2c/B fed|cBA GFE|
A3/2G/F EDC|B,BB B2d|ceA BAG|AAA A2:|
|:e/d/|cde f2d/c/|Bcd e2c/B/|ABc FGA|BcA GFE|
cde f2d/c/|Bcd e2c/B/|ABc Fdc|BAG A2:|

